X:1
T:Capt. Fleming's Delight
M:2/4
L:1/8
R:Country Dance
B:Thompson - Compleat Collection of 200 Favourite Country Dances, vol. 5 (London, 1788, No. 124, p. 62)
Z:AK/Fiddler's Companion
K:G
dBGB|cAFA|dBGB|ce g2|
dBGB |cAFA|de d/c/B/A/|B2G2:|
|:A2 BA/B/|cf a2|B2 cB/c/|dg b2|
bgaf|gefd|edef|g2 G2:|]

